packages/kaspersky-hexa-ui-icons/src/iconsSVGs/24/CodeError.svg

<svg width="24" height="24" viewBox="0 0 24 24" fill="none" xmlns="http://www.w3.org/2000/svg">
<path d="M7.70711 7.29289C8.09763 7.68342 8.09763 8.31658 7.70711 8.70711L4.41421 12L7.70711 15.2929C8.09763 15.6834 8.09763 16.3166 7.70711 16.7071C7.31658 17.0976 6.68342 17.0976 6.29289 16.7071L2.29289 12.7071C1.90237 12.3166 1.90237 11.6834 2.29289 11.2929L6.29289 7.29289C6.68342 6.90237 7.31658 6.90237 7.70711 7.29289Z" fill="black"/>
<path d="M11 8V13C11 13.5523 11.4477 14 12 14C12.5523 14 13 13.5523 13 13V8C13 7.44772 12.5523 7 12 7C11.4477 7 11 7.44772 11 8Z" fill="black"/>
<path d="M12 17C12.5523 17 13 16.5523 13 16C13 15.4477 12.5523 15 12 15C11.4477 15 11 15.4477 11 16C11 16.5523 11.4477 17 12 17Z" fill="black"/>
<path d="M19.5858 12L16.2929 8.70711C15.9024 8.31658 15.9024 7.68342 16.2929 7.29289C16.6834 6.90237 17.3166 6.90237 17.7071 7.29289L21.7071 11.2929C22.0976 11.6834 22.0976 12.3166 21.7071 12.7071L17.7071 16.7071C17.3166 17.0976 16.6834 17.0976 16.2929 16.7071C15.9024 16.3166 15.9024 15.6834 16.2929 15.2929L19.5858 12Z" fill="black"/>
</svg>

<svg xmlns="http://www.w3.org/2000/svg" width="24" height="24" fill="none" viewBox="0 0 24 24"><path fill="#000" fill-rule="evenodd" d="M7.7071 7.2929c.3905.3905.3905 1.0237 0 1.4142L4.4142 12l3.2929 3.2929c.3905.3905.3905 1.0237 0 1.4142s-1.0237.3905-1.4142 0l-4-4c-.3905-.3905-.3905-1.0237 0-1.4142l4-4c.3905-.3905 1.0237-.3905 1.4142 0M19.5858 12l-3.2929-3.2929c-.3905-.3905-.3905-1.0237 0-1.4142s1.0237-.3905 1.4142 0l4 4c.3905.3905.3905 1.0237 0 1.4142l-4 4c-.3905.3905-1.0237.3905-1.4142 0s-.3905-1.0237 0-1.4142zM11 8v5c0 .5523.4477 1 1 1s1-.4477 1-1V8c0-.5523-.4477-1-1-1s-1 .4477-1 1m1 9c.5523 0 1-.4477 1-1s-.4477-1-1-1-1 .4477-1 1 .4477 1 1 1"/></svg>
